!!!COM: Music21
!!!OTL: mazurka_Mazurka-De-Samatan
!!!OMV: mazurka_Mazurka-De-Samatan
**kern
*clefG2
*k[f#]
*G:
*M3/4
=1
4d
=
4b
8bL
8aJ
8bL
8ccJ
=
4b
4g
4d
=
4b
8bL
8aJ
8bL
8ccJ
=
2a
4d
=
4a
8aL
8gJ
8aL
8bJ
=
4a
4f#
4d
=
4a
8aL
8gJ
8aL
8bJ
=
2g
4ryy
!!linebreak:original
=||
*M3/4
4d
=
4b
8bL
8aJ
8bL
8ccJ
=
4b
4g
4d
=
4b
8bL
8aJ
8bL
8ccJ
=
2a
4d
=
4a
8aL
8gJ
8aL
8bJ
=
4a
4f#
4d
=
4a
8aL
8gJ
8aL
8bJ
=
2g
4ryy
=||
8bL
8ccJ
2ryy
!!linebreak:original
=
4dd
4dd
8eeL
8ddJ
=
4cc
4a
8aL
8bJ
=
4cc
4cc
8ddL
8ccJ
=
2b
8gL
8aJ
=
4b
4b
8ccL
8bJ
=
4a
4f#
4d
=
4a
8aL
8gJ
8aL
8bJ
=
2g
4ryy
=||
8bL
8ccJ
2ryy
!!linebreak:original
=
4dd
4dd
8eeL
8ddJ
=
4cc
4a
8aL
8bJ
=
4cc
4cc
8ddL
8ccJ
=
2b
8gL
8aJ
=
4b
4b
8ccL
8bJ
=
4a
4f#
4d
=
4a
8aL
8gJ
8aL
8bJ
=
2g
4ryy
=||
*-
